!!!COM: Anon.
!!!OTL: Hoya hoye
!!!AGN: two voices
!!!AMT: simple duple
!! page 200
**kern	**silbe	**kern	**silbe
!Leader	!Leader	!Group	!Group
*ICvox	*	*ICvox	*
*clefG2	*	*clefG2	*
*k[]	*	*k[]	*
*M4/4	*M4/4	*M4/4	*M4/4
=1-	=1-	=1-	=1-
4r	.	1r	.
8g	ho-	.	.
8g	-ya	.	.
4b	ho-	.	.
4dd	-ye	.	.
=2	=2	=2	=2
4r	.	4g	ho
8g	ho-	4r	.
8g	-ya	2r	.
4b	ho-	.	.
4dd	-ye	.	.
=3	=3	=3	=3
4r	.	4g	ho
8g	ye-	4r	.
8g	-ne	2r	.
4b	gai-	.	.
4dd	-ta	.	.
=4	=4	=4	=4
4r	.	4g	ho
8g	ye-	4r	.
8g	-se-	2r	.
8b	-Tegn	.	.
8b	mu-	.	.
4dd	-kit	.	.
=5	=5	=5	=5
4r	.	4g	ho
8g	ba-	4r	.
8g	-le	2r	.
8b	Ci-	.	.
8b	-ma	.	.
4dd	new	.	.
=6	=6	=6	=6
4r	.	4g	ho
8g	ba-	4r	.
8g	-le	2r	.
8b	mi-	.	.
8b	-li-	.	.
4dd	-kit	.	.
=7	=7	=7	=7
4r	.	4g	ho
8dd	ho-	4r	.
8dd	-ya	2r	.
4b	ho-	.	.
8g	-ye	.	.
8a	gu-	.	.
=8	=8	=8	=8
4f#	-day	1r	.
8g	wey-	.	.
8a	-zi-	.	.
4g	-na	.	.
8g	mew-	.	.
8g	-de-	.	.
=9	=9	=9	=9
4g	-day	4r	.
4r	.	8dd	ho-
.	.	8dd	-ya
2r	.	4b	ho-
.	.	8g	-ye
.	.	8a	gu-
=10	=10	=10	=10
1r	.	4f#	-day
.	.	8g	wey-
.	.	8a	-zi-
.	.	4g	-na
.	.	8g	mew-
.	.	8g	-de-
=11	=11	=11	=11
4r	.	4g	-day
==	==	==	==
*-	*-	*-	*-
!!!CNT: Ethiopia
!!!OCY: United States
!!!OCL: Ashenafi Kebede
!!!YOR: Ashenafi Kebede, "The Music of Ethiopia, Its Development and Cultural Setting"
!!!YOR: PhD dissertation, Wesleyan University, 1971
!!!PDT: 1971
!!!PPP: Middletown, Connecticut, United States of America
!!!YEC: Electronic Copyright 2000 David Huron
!!!YER: November 2000
!!!YEN: United States of America
!!!ENC: David Huron
!!!RDT: November 26, 2000
!!!EEV: Release 1.0
!!!AIN: vox
